X:142
T:Cliff Hornpipe, The
T:Higgin's Hornpipe
R:hornpipe
C:James Hill (1811-1853), Northumberland
D:Leo Rowsome: Classics of Irish Piping
Z:id:hn-hornpipe-142
M:C|
L:1/8
K:D
DFAF GABG | FAde fdAF | GBeg fedc | (3efe (3dcB (3ABA (3GFE |
DFAF GABG | FAde fdAF | GBeg fedc |1 (3efe d2 d2AF :|2 (3efe d2 d2fd ||
|: eA~A2 Agfg | eA~A2 A2ef | (3gag (3fgf edcd | (3efe (3dcB (3ABA (3GFE |
DFAF GABG | FAde fdAF | GBeg fedc |1 (3efe d2 d2fd :|2 (3efe d2 d2AF ||
P:variations
|: DFAF EGBG | FAde fdAF | GBeg FAdf | (3efe (3dcB (3ABA (3GFE |
DFAF EGBG | FAde fdAF | GBeg fedc |1 eddc d2AF :|2 eddc defd ||
|: eA~A2 eAfA | eAAG A2ef | gefd edcd | (3efe (3dcB (3ABA (3GFE |
DFAF EGBG | FAde fdAF | GBeg fedc |1 eddc defd :|2 eddc d2AF ||
P:version 2
|: DFAF DGBG | FAde fdAF | GBef g2gf | edcB (3AGF (3GFE |
DFAF DGBG | FAde fdAF | GBef gecd |1 eddc d2 (3AGF :|2 eddc d3f ||
|: eABA E2ef | g2fg eABA | E2ef gfgf | edcB (3AGF (3GFE |
DFAF DGBG | FAde fdAF | GBef gecd |1 eddc d3f :|2 eddc d2 (3AGF ||

